X:1
T:Queen's Guards -- Reel
R:reel
B:Ryan's Mammoth Collection
Z:Contributed by Ray Davies,  ray:davies99.freeserve.co.uk
M:C|
L:1/8
K:A
u(c/d/)|efec f2e2|efec dBBd|efec f2e2|fdBe cAA (c/d/)|
efec f2e2|efec dBBd|efec f2e2|fdBe cAA::
g|a2ag f2eg|afec dBBg|a2ae f2eg|fdBe cAAg|
a2ag f2ef|afec dBBg|a2af b2ba|gefg a2z:|
